packages/icons/src/SVG/export-solid.svg

<svg width="12" height="12" viewBox="0 0 12 12" fill="none" xmlns="http://www.w3.org/2000/svg">
<path fill-rule="evenodd" clip-rule="evenodd" d="M12 0H0V12H12V5.99999V0ZM12 5.99999L8 9V6.99999H3V4.99999H8L8 2.99999L12 5.99999ZM1 1H5V2H2L2 10H5V11H1V1Z" fill="#4C505B"/>
</svg>

<!-- Generated by IcoMoon.io -->
<svg version="1.1" xmlns="http://www.w3.org/2000/svg" width="12" height="12" viewBox="0 0 12 12">
<title>export-solid</title>
<path d="M12 0h-12v12h12v-12zM12 6l-4 3v-2h-5v-2h5v-2l4 3zM1 1h4v1h-3v8h3v1h-4v-10z"></path>
</svg>
